svgs/light/camera-movie.svg

<svg xmlns="http://www.w3.org/2000/svg" viewBox="0 0 576 512"><!--! Font Awesome Pro 6.0.0-alpha3 by @fontawesome - https://fontawesome.com License - https://fontawesome.com/license (Commercial License) --><path d="M320 255.1L127.1 255.1c-.0332 0 .0332 0 0 0L16 256C7.164 256 0 263.2 0 272C0 280.8 7.164 288 16 288h56.87C67.38 297.4 64 308.3 64 319.1l.0002 128c0 35.34 28.65 63.1 64 63.1L320 511.1c35.35 0 64-28.65 64-63.1V319.1C384 284.6 355.3 255.1 320 255.1zM352 447.1c0 17.64-14.36 31.1-32 31.1H128c-17.64 0-32-14.35-32-31.1V319.1C96 302.4 110.3 288 127.9 288l48.09-.0059c.0215 0-.0215 0 0 0L320 287.1c17.64 0 32 14.36 32 31.1V447.1zM336 0c-41 0-76.48 22.27-96 55.14C220.5 22.27 185 0 144 0C82.14 0 32 50.14 32 112S82.14 224 144 224h192C397.9 224 448 173.9 448 112S397.9 0 336 0zM336 192h-192C99.89 192 64 156.1 64 112C64 67.89 99.89 32 144 32c28.21 0 53.81 14.76 68.48 39.48C218.3 81.19 228.7 87.14 240 87.14s21.75-5.953 27.52-15.66C282.2 46.76 307.8 32 336 32C380.1 32 416 67.89 416 112C416 156.1 380.1 192 336 192zM553.3 266.1c-14.28-8.844-31.73-9.656-46.72-2.125l-81.69 40.84c-7.906 3.969-11.11 13.56-7.156 21.47c3.953 7.875 13.59 11.12 21.47 7.156l81.67-40.84c7.203-3.625 13.28-.6875 15.59 .7187C538.7 295.6 544 299.8 544 307.8v152.4c0 8.031-5.297 12.19-7.578 13.59c-2.312 1.406-8.406 4.312-15.58 .7187l-81.69-40.84c-7.875-3.969-17.52-.7187-21.47 7.156c-3.953 7.906-.75 17.5 7.156 21.47l81.7 40.84c6.828 3.406 14.16 5.094 21.47 5.094c8.75 0 17.47-2.406 25.23-7.219C567.5 492.2 576 476.1 576 460.2V307.8C576 291 567.5 275.8 553.3 266.1zM144 88c-13.25 0-24 10.74-24 24c0 13.25 10.75 24 24 24c13.26 0 24-10.75 24-24C168 98.74 157.3 88 144 88zM336 88c-13.25 0-24 10.74-24 24c0 13.25 10.75 24 24 24c13.26 0 24-10.75 24-24C360 98.74 349.3 88 336 88z"/></svg>

<svg xmlns="http://www.w3.org/2000/svg" viewBox="0 0 576 512"><!-- Font Awesome Pro 6.0.0-alpha2 by @fontawesome - https://fontawesome.com License - https://fontawesome.com/license (Commercial License) --><path d="M320 255.99H128C127.967 255.99 127.936 256 127.902 256H16C7.164 256 0 263.162 0 272C0 280.836 7.164 288 16 288H72.869C67.375 297.443 64 308.275 64 319.986V447.973C64 483.316 92.654 511.969 128 511.969H320C355.346 511.969 384 483.316 384 447.973V319.986C384 284.643 355.346 255.99 320 255.99ZM352 447.973C352 465.617 337.645 479.971 320 479.971H128C110.355 479.971 96 465.617 96 447.973V319.986C96 302.365 110.324 288.035 127.941 288H176C176.021 288 176.037 287.988 176.059 287.988H320C337.645 287.988 352 302.344 352 319.986V447.973ZM336 0C294.998 0 259.518 22.273 240 55.145C220.482 22.273 185.002 0 144 0C82.145 0 32 50.145 32 112S82.145 224 144 224H336C397.855 224 448 173.855 448 112S397.855 0 336 0ZM336 192H144C99.889 192 64 156.111 64 112C64 67.887 99.889 32 144 32C172.205 32 197.807 46.76 212.484 71.48C218.25 81.191 228.707 87.145 240 87.145S261.75 81.191 267.516 71.48C282.195 46.76 307.797 32 336 32C380.113 32 416 67.887 416 112C416 156.111 380.113 192 336 192ZM553.25 266.969C538.969 258.125 521.516 257.312 506.531 264.844L424.844 305.688C416.938 309.656 413.734 319.25 417.688 327.156C421.641 335.031 431.281 338.281 439.156 334.312L520.828 293.469C528.031 289.844 534.109 292.781 536.422 294.187C538.703 295.594 544 299.75 544 307.781V460.219C544 468.25 538.703 472.406 536.422 473.813C534.109 475.219 528.016 478.125 520.844 474.531L439.156 433.688C431.281 429.719 421.641 432.969 417.688 440.844C413.734 448.75 416.938 458.344 424.844 462.312L506.547 503.156C513.375 506.562 520.703 508.25 528.016 508.25C536.766 508.25 545.484 505.844 553.25 501.031C567.5 492.219 576 476.969 576 460.219V307.781C576 291.031 567.5 275.781 553.25 266.969ZM144 88C130.746 88 120 98.744 120 112C120 125.254 130.746 136 144 136C157.256 136 168 125.254 168 112C168 98.744 157.256 88 144 88ZM336 88C322.746 88 312 98.744 312 112C312 125.254 322.746 136 336 136C349.256 136 360 125.254 360 112C360 98.744 349.256 88 336 88Z"/></svg>
